images/svg/car.svg

<svg xmlns="http://www.w3.org/2000/svg" xmlns:xlink="http://www.w3.org/1999/xlink" width="20pt" height="20pt" viewBox="0 0 20 20" version="1.1" class="svg replaced-svg">
<g id="surface1">
<path style=" stroke:none;fill-rule:nonzero;fill:rgb(0%,0%,0%);fill-opacity:1;" d="M 18.601562 11.207031 L 18.082031 9.136719 C 18.222656 9.105469 18.328125 8.980469 18.328125 8.832031 L 18.328125 8.496094 C 18.328125 7.769531 17.738281 7.179688 17.015625 7.179688 L 14.65625 7.179688 L 14.65625 6.492188 C 14.65625 6.136719 14.367188 5.84375 14.007812 5.84375 L 9.621094 5.84375 L 12.289062 4.777344 C 12.449219 4.714844 12.527344 4.53125 12.460938 4.371094 C 12.398438 4.210938 12.214844 4.132812 12.054688 4.199219 L 9.871094 5.070312 C 10.539062 4.644531 11.195312 4.175781 11.445312 3.84375 C 11.933594 3.207031 11.808594 2.289062 11.171875 1.800781 C 10.53125 1.3125 9.613281 1.4375 9.125 2.078125 C 8.769531 2.542969 8.300781 3.855469 7.996094 4.78125 C 7.691406 3.855469 7.222656 2.542969 6.863281 2.078125 C 6.378906 1.4375 5.460938 1.3125 4.820312 1.800781 C 4.179688 2.289062 4.058594 3.207031 4.546875 3.84375 C 4.796875 4.175781 5.453125 4.644531 6.121094 5.070312 L 3.9375 4.199219 C 3.777344 4.132812 3.59375 4.210938 3.53125 4.371094 C 3.464844 4.53125 3.542969 4.714844 3.703125 4.777344 L 6.371094 5.84375 L 1.984375 5.84375 C 1.625 5.84375 1.335938 6.136719 1.335938 6.492188 L 1.335938 12.171875 C 1.335938 12.34375 1.476562 12.484375 1.648438 12.484375 C 1.820312 12.484375 1.960938 12.34375 1.960938 12.171875 L 1.960938 6.492188 C 1.960938 6.480469 1.972656 6.472656 1.984375 6.472656 L 14.007812 6.472656 C 14.019531 6.472656 14.027344 6.480469 14.027344 6.492188 L 14.027344 12.171875 C 14.027344 12.34375 14.167969 12.484375 14.34375 12.484375 C 14.515625 12.484375 14.65625 12.34375 14.65625 12.171875 L 14.65625 11.816406 L 18.347656 11.816406 C 18.351562 11.816406 18.351562 11.816406 18.351562 11.816406 C 18.804688 11.816406 19.191406 12.113281 19.324219 12.527344 L 18.351562 12.527344 C 18.179688 12.527344 18.039062 12.667969 18.039062 12.839844 L 18.039062 13.507812 C 18.039062 14.046875 18.476562 14.488281 19.019531 14.488281 L 19.375 14.488281 L 19.375 15.867188 L 18.554688 15.867188 C 18.285156 15.089844 17.546875 14.53125 16.679688 14.53125 C 15.8125 14.53125 15.074219 15.089844 14.804688 15.867188 L 14.65625 15.867188 L 14.65625 13.507812 C 14.65625 13.335938 14.515625 13.195312 14.34375 13.195312 C 14.167969 13.195312 14.027344 13.335938 14.027344 13.507812 L 14.027344 15.867188 L 7.53125 15.867188 C 7.261719 15.089844 6.523438 14.53125 5.65625 14.53125 C 4.789062 14.53125 4.050781 15.089844 3.785156 15.867188 L 1.984375 15.867188 C 1.972656 15.867188 1.960938 15.855469 1.960938 15.84375 L 1.960938 15.15625 L 3.320312 15.15625 C 3.492188 15.15625 3.632812 15.015625 3.632812 14.84375 C 3.632812 14.671875 3.492188 14.53125 3.320312 14.53125 L 0.3125 14.53125 C 0.140625 14.53125 0 14.671875 0 14.84375 C 0 15.015625 0.140625 15.15625 0.3125 15.15625 L 1.335938 15.15625 L 1.335938 15.84375 C 1.335938 16.203125 1.625 16.492188 1.984375 16.492188 L 3.675781 16.492188 C 3.675781 16.5 3.675781 16.507812 3.675781 16.511719 C 3.675781 17.605469 4.5625 18.496094 5.65625 18.496094 C 6.75 18.496094 7.640625 17.605469 7.640625 16.511719 C 7.640625 16.507812 7.640625 16.5 7.640625 16.492188 L 14.699219 16.492188 C 14.699219 16.5 14.695312 16.507812 14.695312 16.511719 C 14.695312 17.605469 15.585938 18.496094 16.679688 18.496094 C 17.773438 18.496094 18.664062 17.605469 18.664062 16.511719 C 18.664062 16.507812 18.664062 16.5 18.664062 16.492188 L 19.6875 16.492188 C 19.859375 16.492188 20 16.351562 20 16.179688 L 20 12.839844 C 20 12.015625 19.390625 11.328125 18.601562 11.207031 Z M 6.753906 4.730469 C 5.519531 3.960938 5.152344 3.609375 5.042969 3.464844 C 4.765625 3.101562 4.835938 2.578125 5.199219 2.300781 C 5.351562 2.183594 5.527344 2.128906 5.703125 2.128906 C 5.957031 2.128906 6.203125 2.242188 6.367188 2.457031 C 6.671875 2.855469 7.144531 4.191406 7.457031 5.152344 C 7.246094 5.03125 7.003906 4.882812 6.753906 4.730469 Z M 8.535156 5.152344 C 8.847656 4.191406 9.320312 2.855469 9.625 2.457031 C 9.902344 2.09375 10.425781 2.019531 10.789062 2.300781 C 11.15625 2.578125 11.226562 3.101562 10.949219 3.464844 C 10.839844 3.609375 10.472656 3.960938 9.238281 4.730469 C 8.988281 4.882812 8.746094 5.03125 8.535156 5.152344 Z M 14.65625 7.808594 L 17.015625 7.808594 C 17.394531 7.808594 17.703125 8.117188 17.703125 8.496094 L 17.703125 8.515625 L 14.65625 8.515625 Z M 14.65625 11.191406 L 14.65625 9.144531 L 17.4375 9.144531 L 17.949219 11.191406 Z M 5.65625 17.871094 C 4.910156 17.871094 4.300781 17.261719 4.300781 16.511719 C 4.300781 15.765625 4.910156 15.15625 5.65625 15.15625 C 6.40625 15.15625 7.015625 15.765625 7.015625 16.511719 C 7.015625 17.261719 6.40625 17.871094 5.65625 17.871094 Z M 16.679688 17.871094 C 15.933594 17.871094 15.324219 17.261719 15.324219 16.511719 C 15.324219 15.765625 15.933594 15.15625 16.679688 15.15625 C 17.429688 15.15625 18.039062 15.765625 18.039062 16.511719 C 18.039062 17.261719 17.429688 17.871094 16.679688 17.871094 Z M 19.375 13.863281 L 19.019531 13.863281 C 18.824219 13.863281 18.664062 13.703125 18.664062 13.507812 L 18.664062 13.152344 L 19.375 13.152344 Z M 19.375 13.863281 "></path>
<path style=" stroke:none;fill-rule:nonzero;fill:rgb(0%,0%,0%);fill-opacity:1;" d="M 5.65625 15.867188 C 5.300781 15.867188 5.011719 16.15625 5.011719 16.511719 C 5.011719 16.871094 5.300781 17.160156 5.65625 17.160156 C 6.015625 17.160156 6.304688 16.871094 6.304688 16.511719 C 6.304688 16.15625 6.015625 15.867188 5.65625 15.867188 Z M 5.65625 15.867188 "></path>
<path style=" stroke:none;fill-rule:nonzero;fill:rgb(0%,0%,0%);fill-opacity:1;" d="M 16.679688 15.867188 C 16.324219 15.867188 16.035156 16.15625 16.035156 16.511719 C 16.035156 16.871094 16.324219 17.160156 16.679688 17.160156 C 17.039062 17.160156 17.328125 16.871094 17.328125 16.511719 C 17.328125 16.15625 17.039062 15.867188 16.679688 15.867188 Z M 16.679688 15.867188 "></path>
<path style=" stroke:none;fill-rule:nonzero;fill:rgb(0%,0%,0%);fill-opacity:1;" d="M 13.007812 14.53125 L 8.328125 14.53125 C 8.15625 14.53125 8.015625 14.671875 8.015625 14.84375 C 8.015625 15.015625 8.15625 15.15625 8.328125 15.15625 L 13.007812 15.15625 C 13.179688 15.15625 13.320312 15.015625 13.320312 14.84375 C 13.320312 14.671875 13.179688 14.53125 13.007812 14.53125 Z M 13.007812 14.53125 "></path>
<path style=" stroke:none;fill-rule:nonzero;fill:rgb(0%,0%,0%);fill-opacity:1;" d="M 4.988281 13.195312 L 0.980469 13.195312 C 0.808594 13.195312 0.667969 13.335938 0.667969 13.507812 C 0.667969 13.679688 0.808594 13.820312 0.980469 13.820312 L 4.988281 13.820312 C 5.164062 13.820312 5.304688 13.679688 5.304688 13.507812 C 5.304688 13.335938 5.164062 13.195312 4.988281 13.195312 Z M 4.988281 13.195312 "></path>
<path style=" stroke:none;fill-rule:nonzero;fill:rgb(0%,0%,0%);fill-opacity:1;" d="M 4.988281 8.515625 L 3.652344 8.515625 C 3.480469 8.515625 3.339844 8.65625 3.339844 8.832031 L 3.339844 11.503906 C 3.339844 11.675781 3.480469 11.816406 3.652344 11.816406 C 3.828125 11.816406 3.964844 11.675781 3.964844 11.503906 L 3.964844 10.480469 L 4.65625 10.480469 C 4.828125 10.480469 4.96875 10.339844 4.96875 10.167969 C 4.96875 9.992188 4.828125 9.851562 4.65625 9.851562 L 3.964844 9.851562 L 3.964844 9.144531 L 4.988281 9.144531 C 5.164062 9.144531 5.304688 9.003906 5.304688 8.832031 C 5.300781 8.65625 5.164062 8.515625 4.988281 8.515625 Z M 4.988281 8.515625 "></path>
<path style=" stroke:none;fill-rule:nonzero;fill:rgb(0%,0%,0%);fill-opacity:1;" d="M 7.453125 10.625 C 7.765625 10.421875 7.976562 10.066406 7.976562 9.664062 C 7.976562 9.03125 7.460938 8.515625 6.828125 8.515625 L 5.992188 8.515625 C 5.820312 8.515625 5.679688 8.65625 5.679688 8.832031 L 5.679688 11.503906 C 5.679688 11.675781 5.820312 11.816406 5.992188 11.816406 C 6.164062 11.816406 6.304688 11.675781 6.304688 11.503906 L 6.304688 10.8125 L 6.824219 10.8125 L 7.402344 11.675781 C 7.460938 11.765625 7.5625 11.816406 7.660156 11.816406 C 7.722656 11.816406 7.78125 11.800781 7.835938 11.761719 C 7.980469 11.667969 8.019531 11.472656 7.921875 11.328125 Z M 6.828125 10.1875 L 6.304688 10.1875 L 6.304688 9.144531 L 6.828125 9.144531 C 7.113281 9.144531 7.347656 9.378906 7.347656 9.664062 C 7.347656 9.953125 7.113281 10.1875 6.828125 10.1875 Z M 6.828125 10.1875 "></path>
<path style=" stroke:none;fill-rule:nonzero;fill:rgb(0%,0%,0%);fill-opacity:1;" d="M 10 11.191406 L 8.976562 11.191406 L 8.976562 10.480469 C 8.984375 10.480469 8.992188 10.480469 8.996094 10.480469 L 9.664062 10.480469 C 9.839844 10.480469 9.980469 10.339844 9.980469 10.167969 C 9.980469 9.992188 9.839844 9.855469 9.664062 9.855469 L 8.996094 9.855469 C 8.992188 9.855469 8.984375 9.855469 8.976562 9.855469 L 8.976562 9.144531 L 10 9.144531 C 10.171875 9.144531 10.3125 9.003906 10.3125 8.832031 C 10.3125 8.65625 10.171875 8.515625 10 8.515625 L 8.664062 8.515625 C 8.492188 8.515625 8.351562 8.65625 8.351562 8.832031 L 8.351562 11.503906 C 8.351562 11.675781 8.492188 11.816406 8.664062 11.816406 L 10 11.816406 C 10.171875 11.816406 10.3125 11.675781 10.3125 11.503906 C 10.3125 11.328125 10.171875 11.191406 10 11.191406 Z M 10 11.191406 "></path>
<path style=" stroke:none;fill-rule:nonzero;fill:rgb(0%,0%,0%);fill-opacity:1;" d="M 12.339844 11.191406 L 11.316406 11.191406 L 11.316406 10.480469 L 11.671875 10.480469 C 11.84375 10.480469 11.984375 10.339844 11.984375 10.167969 C 11.984375 9.992188 11.84375 9.855469 11.671875 9.855469 L 11.316406 9.855469 L 11.316406 9.144531 L 12.339844 9.144531 C 12.511719 9.144531 12.652344 9.003906 12.652344 8.832031 C 12.652344 8.65625 12.511719 8.515625 12.339844 8.515625 L 11.003906 8.515625 C 10.828125 8.515625 10.6875 8.65625 10.6875 8.832031 L 10.6875 11.503906 C 10.6875 11.675781 10.828125 11.816406 11.003906 11.816406 L 12.339844 11.816406 C 12.511719 11.816406 12.652344 11.675781 12.652344 11.503906 C 12.652344 11.328125 12.511719 11.191406 12.339844 11.191406 Z M 12.339844 11.191406 "></path>
</g>
</svg>

<svg xmlns="http://www.w3.org/2000/svg" width="20pt" height="20pt" viewBox="0 0 20 20" class="svg replaced-svg"><g id="surface1"><path d="M18.602 11.207l-.52-2.07a.314.314 0 00.246-.305v-.336c0-.726-.59-1.316-1.312-1.316h-2.36v-.688a.65.65 0 00-.648-.648H9.62l2.668-1.067a.31.31 0 00.172-.406.31.31 0 00-.406-.172L9.87 5.07c.668-.425 1.324-.894 1.574-1.226a1.46 1.46 0 00-.273-2.043 1.462 1.462 0 00-2.047.277c-.355.465-.824 1.777-1.129 2.703-.305-.926-.773-2.238-1.133-2.703a1.457 1.457 0 10-2.316 1.766c.25.332.906.8 1.574 1.226L3.937 4.2a.31.31 0 00-.406.171.31.31 0 00.172.406l2.668 1.067H1.984a.65.65 0 00-.648.648v5.68a.312.312 0 00.625 0v-5.68c0-.012.012-.02.023-.02h12.024c.012 0 .02.008.02.02v5.68a.314.314 0 00.628 0v-.356h3.696c.453 0 .84.297.972.711h-.972a.313.313 0 00-.313.313v.668c0 .539.438.98.98.98h.356v1.38h-.82a1.987 1.987 0 00-1.875-1.337c-.867 0-1.606.559-1.875 1.336h-.149v-2.36a.314.314 0 00-.629 0v2.36H7.531a1.987 1.987 0 00-1.875-1.336c-.867 0-1.605.559-1.87 1.336H1.983a.025.025 0 01-.023-.023v-.688h1.36c.171 0 .312-.14.312-.312a.313.313 0 00-.313-.313H.313a.313.313 0 00-.313.313c0 .172.14.312.313.312h1.023v.688c0 .36.289.648.648.648h1.692v.02c0 1.093.886 1.984 1.98 1.984 1.094 0 1.985-.89 1.985-1.984v-.02h7.058c0 .008-.004.016-.004.02 0 1.093.89 1.984 1.985 1.984 1.093 0 1.984-.89 1.984-1.984v-.02h1.023c.172 0 .313-.14.313-.312v-3.34c0-.824-.61-1.512-1.398-1.633zM6.754 4.73C5.52 3.96 5.152 3.61 5.043 3.465a.833.833 0 011.324-1.008c.305.398.778 1.734 1.09 2.695-.21-.12-.453-.27-.703-.422zm1.781.422c.313-.96.785-2.297 1.09-2.695a.83.83 0 011.164-.156.83.83 0 01.16 1.164c-.11.144-.476.496-1.71 1.265-.25.153-.493.301-.704.422zm6.121 2.657h2.36c.379 0 .687.308.687.687v.02h-3.047zm0 3.382V9.145h2.781l.512 2.046zm-9 6.68a1.36 1.36 0 01-1.355-1.36c0-.745.61-1.355 1.355-1.355.75 0 1.36.61 1.36 1.356 0 .75-.61 1.36-1.36 1.36zm11.024 0a1.36 1.36 0 01-1.356-1.36c0-.745.61-1.355 1.356-1.355.75 0 1.36.61 1.36 1.356 0 .75-.61 1.36-1.36 1.36zm2.695-4.008h-.355a.357.357 0 01-.356-.355v-.356h.711zm0 0"/><path d="M5.656 15.867a.646.646 0 10.003 1.294.646.646 0 00-.003-1.294zm11.024 0a.646.646 0 10.003 1.294.646.646 0 00-.003-1.294zm-3.672-1.336h-4.68a.313.313 0 00-.312.313c0 .172.14.312.312.312h4.68c.172 0 .312-.14.312-.312a.313.313 0 00-.312-.313zm-8.02-1.336H.98a.313.313 0 00-.312.313c0 .172.14.312.312.312h4.008c.176 0 .317-.14.317-.312a.314.314 0 00-.317-.313zm0-4.679H3.652a.314.314 0 00-.312.316v2.672c0 .172.14.312.312.312a.31.31 0 00.313-.312V10.48h.691a.314.314 0 000-.629h-.691v-.706h1.023a.315.315 0 00.317-.313.318.318 0 00-.317-.316zm2.465 2.109c.313-.203.524-.559.524-.96a1.15 1.15 0 00-1.149-1.15h-.836a.314.314 0 00-.312.317v2.672a.312.312 0 00.625 0v-.691h.52l.577.863c.059.09.16.14.258.14a.292.292 0 00.176-.054.31.31 0 00.086-.434zm-.625-.438h-.523V9.146h.523a.522.522 0 010 1.043zM10 11.191H8.977v-.71h.687a.314.314 0 00.316-.313.312.312 0 00-.316-.313h-.688v-.71H10a.314.314 0 000-.629H8.664a.314.314 0 00-.312.316v2.672c0 .172.14.312.312.312H10c.172 0 .313-.14.313-.312A.31.31 0 0010 11.19zm2.34 0h-1.024v-.71h.356a.313.313 0 00.312-.313.31.31 0 00-.312-.313h-.356v-.71h1.024a.314.314 0 000-.629h-1.336a.315.315 0 00-.316.316v2.672c0 .172.14.312.316.312h1.336c.172 0 .312-.14.312-.312a.31.31 0 00-.312-.313zm0 0"/></g></svg>
